teeny/solid/calendar-no-access.svg

<svg width="15" height="15" viewBox="0 0 15 15" fill="none" xmlns="http://www.w3.org/2000/svg">
<path d="M7.5 6C6.11929 6 5 7.11929 5 8.5C5 9.00954 5.15244 9.48349 5.4142 9.8787L8.8787 6.4142C8.48349 6.15244 8.00954 6 7.5 6Z" fill="black"/>
<path d="M7.5 11C6.99046 11 6.51653 10.8476 6.12131 10.5858L9.58581 7.12131C9.84756 7.51653 10 7.99046 10 8.5C10 9.88071 8.88071 11 7.5 11Z" fill="black"/>
<path fill-rule="evenodd" clip-rule="evenodd" d="M13.5 2H12V0H11V2H4V0H3V2H1.5C0.671573 2 0 2.67157 0 3.5V13.5C0 14.3284 0.671573 15 1.5 15H13.5C14.3284 15 15 14.3284 15 13.5V3.5C15 2.67157 14.3284 2 13.5 2ZM4 8.5C4 6.567 5.567 5 7.5 5C9.433 5 11 6.567 11 8.5C11 10.433 9.433 12 7.5 12C5.567 12 4 10.433 4 8.5Z" fill="black"/>
</svg>

<svg viewBox="0 0 15 15" xmlns="http://www.w3.org/2000/svg"><g><path d="M7.5 6C6.11 6 5 7.11 5 8.5c0 .5.15.98.41 1.37L8.87 6.4c-.4-.27-.87-.42-1.38-.42Z"/><path d="M7.5 11c-.51 0-.99-.16-1.38-.42l3.46-3.47c.26.39.41.86.41 1.37 0 1.38-1.12 2.5-2.5 2.5Z"/><path fill-rule="evenodd" d="M13.5 2H12V0h-1v2H4V0H3v2H1.5C.67 2 0 2.67 0 3.5v10c0 .82.67 1.5 1.5 1.5h12c.82 0 1.5-.68 1.5-1.5v-10c0-.83-.68-1.5-1.5-1.5ZM4 8.5C4 6.56 5.56 5 7.5 5 9.43 5 11 6.56 11 8.5c0 1.93-1.57 3.5-3.5 3.5C5.56 12 4 10.43 4 8.5Z"/></g></svg>
